X:1
T:With My Shillelagh Under My Arm%%composerspaceC:from the playing of Sally Sloane%%musicspace
L:1/8
M:6/8
K:Dmaj
f2e|:d2B B2A|F2B B2d|c2B A2c|e3 f2e|d2B B2A|F2B B2c|d2B cBA|B3 B2c|
|d2c d2B|A2F D2F|G2F G2A|B3 B2c|d2e f2e|d2B A2F|A2B A2F|E3 ABc|]
[|d2D F2E|D3 d2c|B2A d2F|A3 ABc|d2c d2B|A2F D2F|F3 E3|E3 ABc|
|d2D F2E|D3 d2c|B2A d2F|A3 ABc|d2c d2B|A2B d2f|e3-e3|1d3 f2e:|2d6|] 